svg/color/dexg.svg

<?xml version="1.0" encoding="UTF-8" ?>
<!DOCTYPE svg PUBLIC "-//W3C//DTD SVG 1.1//EN" "http://www.w3.org/Graphics/SVG/1.1/DTD/svg11.dtd">
<svg width="250pt" height="250pt" viewBox="0 0 250 250" version="1.1" xmlns="http://www.w3.org/2000/svg">
<g id="#ffffffff">
<path fill="#ffffff" opacity="1.00" d=" M 0.00 0.00 L 250.00 0.00 L 250.00 250.00 L 0.00 250.00 L 0.00 0.00 M 104.62 19.61 C 100.28 22.35 95.65 24.60 91.30 27.33 C 91.32 27.86 91.36 28.91 91.38 29.43 C 98.72 33.41 105.62 38.19 113.21 41.70 C 113.94 39.20 114.32 36.61 114.25 34.01 C 114.16 27.66 114.58 21.27 113.53 14.98 C 110.36 16.11 107.45 17.82 104.62 19.61 M 136.47 14.98 C 136.11 17.64 135.77 20.31 135.76 22.99 C 135.80 47.66 135.80 72.34 135.76 97.01 C 135.77 99.71 136.10 102.39 136.45 105.07 C 138.25 104.40 140.02 103.66 141.70 102.72 C 151.66 97.06 161.46 91.09 171.49 85.54 C 173.54 84.24 176.69 83.05 176.31 80.06 C 176.37 66.69 176.37 53.31 176.30 39.94 C 176.68 37.26 173.93 36.06 172.06 34.91 C 164.95 30.99 158.02 26.75 150.89 22.87 C 146.08 20.26 141.67 16.84 136.47 14.98 M 69.67 39.66 C 62.18 44.11 54.63 48.47 47.11 52.88 C 43.52 55.02 39.57 56.65 36.33 59.34 C 36.32 59.68 36.31 60.36 36.30 60.70 C 41.90 65.00 48.41 67.93 54.43 71.58 C 71.96 81.73 89.55 91.74 107.00 102.00 C 109.07 103.26 111.27 104.27 113.55 105.07 C 114.64 98.43 114.12 91.69 114.22 85.00 C 113.98 76.44 114.80 67.83 113.65 59.31 C 105.18 54.02 96.23 49.52 87.74 44.26 C 83.52 41.90 79.54 38.97 74.98 37.31 C 73.04 37.63 71.37 38.75 69.67 39.66 M 191.39 46.94 C 190.39 55.59 190.41 64.42 191.37 73.08 C 196.18 71.84 200.24 68.86 204.53 66.48 C 207.63 64.61 210.97 63.08 213.71 60.69 C 213.70 60.35 213.67 59.67 213.66 59.33 C 210.85 56.90 207.39 55.46 204.20 53.62 C 199.96 51.34 196.08 48.29 191.39 46.94 M 24.02 79.94 C 22.93 88.61 23.77 97.40 23.54 106.12 C 27.40 106.06 30.44 103.41 33.66 101.65 C 38.06 98.81 43.16 96.92 46.86 93.09 C 39.72 87.98 31.92 83.75 24.02 79.94 M 218.10 83.95 C 199.02 94.91 180.00 105.95 160.95 116.95 C 156.63 119.57 151.87 121.54 148.07 124.95 C 151.54 127.99 155.68 130.05 159.64 132.34 C 167.15 136.47 174.49 140.90 181.86 145.26 C 184.28 146.55 187.22 148.83 189.90 146.81 C 201.96 139.52 214.47 132.97 226.41 125.48 C 226.60 112.98 226.35 100.48 226.52 87.98 C 226.57 85.28 226.43 82.59 225.97 79.93 C 223.24 81.06 220.64 82.46 218.10 83.95 M 60.09 103.19 C 48.04 110.49 35.52 117.02 23.60 124.52 C 23.42 134.68 23.59 144.84 23.53 155.00 C 23.60 160.02 23.14 165.09 24.03 170.07 C 30.81 167.12 36.95 162.95 43.45 159.45 C 58.58 150.50 73.94 141.94 89.11 133.04 C 93.40 130.37 98.24 128.54 101.94 125.00 C 100.54 123.78 99.11 122.59 97.50 121.66 C 87.43 116.04 77.38 110.37 67.50 104.40 C 65.29 103.13 62.53 101.31 60.09 103.19 M 216.34 148.35 C 211.93 151.18 206.84 153.08 203.14 156.91 C 210.27 162.02 218.07 166.24 225.96 170.06 C 227.08 161.39 226.23 152.60 226.45 143.87 C 222.60 143.94 219.56 146.59 216.34 148.35 M 108.30 147.28 C 98.32 152.92 88.57 158.96 78.51 164.45 C 76.46 165.76 73.31 166.95 73.69 169.93 C 73.57 182.30 73.75 194.66 73.62 207.03 C 73.80 209.25 73.07 212.26 75.48 213.54 C 83.47 218.34 91.60 222.93 99.73 227.49 C 104.30 230.05 108.50 233.36 113.53 235.03 C 113.89 232.36 114.22 229.69 114.24 227.01 C 114.20 206.00 114.23 185.00 114.22 164.00 C 114.16 157.64 114.58 151.24 113.54 144.93 C 111.75 145.60 109.97 146.34 108.30 147.28 M 136.45 144.93 C 135.51 150.57 135.79 156.30 135.78 161.99 C 136.05 171.55 135.16 181.17 136.35 190.68 C 147.20 197.24 158.40 203.20 169.21 209.85 C 171.65 210.94 174.29 213.73 177.08 212.05 C 188.44 205.88 199.38 198.95 210.73 192.76 C 211.90 191.81 214.24 191.22 213.70 189.30 C 211.90 187.69 209.75 186.53 207.67 185.32 C 186.66 173.35 165.74 161.24 144.84 149.08 C 142.17 147.45 139.42 145.92 136.45 144.93 M 45.57 183.55 C 42.44 185.39 39.04 186.88 36.29 189.30 C 36.30 189.64 36.32 190.33 36.34 190.67 C 39.14 193.10 42.61 194.54 45.80 196.39 C 50.04 198.66 53.92 201.72 58.61 203.06 C 59.61 194.40 59.59 185.57 58.63 176.92 C 53.82 178.12 49.85 181.21 45.57 183.55 M 135.75 215.98 C 135.84 222.34 135.42 228.73 136.47 235.03 C 139.63 233.88 142.55 232.18 145.38 230.39 C 149.72 227.64 154.36 225.40 158.70 222.67 C 158.68 222.14 158.64 221.09 158.62 220.57 C 151.28 216.59 144.38 211.81 136.79 208.30 C 136.07 210.80 135.68 213.38 135.75 215.98 Z" />
</g>
<g id="#f2994aff">
<path fill="#f2994a" opacity="1.00" d=" M 104.62 19.61 C 107.45 17.82 110.36 16.11 113.53 14.98 C 114.58 21.27 114.16 27.66 114.25 34.01 C 114.32 36.61 113.94 39.20 113.21 41.70 C 105.62 38.19 98.72 33.41 91.38 29.43 C 91.36 28.91 91.32 27.86 91.30 27.33 C 95.65 24.60 100.28 22.35 104.62 19.61 Z" />
<path fill="#f2994a" opacity="1.00" d=" M 136.47 14.98 C 141.67 16.84 146.08 20.26 150.89 22.87 C 158.02 26.75 164.95 30.99 172.06 34.91 C 173.93 36.06 176.68 37.26 176.30 39.94 C 176.37 53.31 176.37 66.69 176.31 80.06 C 176.69 83.05 173.54 84.24 171.49 85.54 C 161.46 91.09 151.66 97.06 141.70 102.72 C 140.02 103.66 138.25 104.40 136.45 105.07 C 136.10 102.39 135.77 99.71 135.76 97.01 C 135.80 72.34 135.80 47.66 135.76 22.99 C 135.77 20.31 136.11 17.64 136.47 14.98 Z" />
<path fill="#f2994a" opacity="1.00" d=" M 69.67 39.66 C 71.37 38.75 73.04 37.63 74.98 37.31 C 79.54 38.97 83.52 41.90 87.74 44.26 C 96.23 49.52 105.18 54.02 113.65 59.31 C 114.80 67.83 113.98 76.44 114.22 85.00 C 114.12 91.69 114.64 98.43 113.55 105.07 C 111.27 104.27 109.07 103.26 107.00 102.00 C 89.55 91.74 71.96 81.73 54.43 71.58 C 48.41 67.93 41.90 65.00 36.30 60.70 C 36.31 60.36 36.32 59.68 36.33 59.34 C 39.57 56.65 43.52 55.02 47.11 52.88 C 54.63 48.47 62.18 44.11 69.67 39.66 Z" />
<path fill="#f2994a" opacity="1.00" d=" M 191.39 46.94 C 196.08 48.29 199.96 51.34 204.20 53.62 C 207.39 55.46 210.85 56.90 213.66 59.33 C 213.67 59.67 213.70 60.35 213.71 60.69 C 210.97 63.08 207.63 64.61 204.53 66.48 C 200.24 68.86 196.18 71.84 191.37 73.08 C 190.41 64.42 190.39 55.59 191.39 46.94 Z" />
<path fill="#f2994a" opacity="1.00" d=" M 24.02 79.94 C 31.92 83.75 39.72 87.98 46.86 93.09 C 43.16 96.92 38.06 98.81 33.66 101.65 C 30.44 103.41 27.40 106.06 23.54 106.12 C 23.77 97.40 22.93 88.61 24.02 79.94 Z" />
<path fill="#f2994a" opacity="1.00" d=" M 218.10 83.95 C 220.64 82.46 223.24 81.06 225.97 79.93 C 226.43 82.59 226.57 85.28 226.52 87.98 C 226.35 100.48 226.60 112.98 226.41 125.48 C 214.47 132.97 201.96 139.52 189.90 146.81 C 187.22 148.83 184.28 146.55 181.86 145.26 C 174.49 140.90 167.15 136.47 159.64 132.34 C 155.68 130.05 151.54 127.99 148.07 124.95 C 151.87 121.54 156.63 119.57 160.95 116.95 C 180.00 105.95 199.02 94.91 218.10 83.95 Z" />
<path fill="#f2994a" opacity="1.00" d=" M 60.09 103.19 C 62.53 101.31 65.29 103.13 67.50 104.40 C 77.38 110.37 87.43 116.04 97.50 121.66 C 99.11 122.59 100.54 123.78 101.94 125.00 C 98.24 128.54 93.40 130.37 89.11 133.04 C 73.94 141.94 58.58 150.50 43.45 159.45 C 36.95 162.95 30.81 167.12 24.03 170.07 C 23.14 165.09 23.60 160.02 23.53 155.00 C 23.59 144.84 23.42 134.68 23.60 124.52 C 35.52 117.02 48.04 110.49 60.09 103.19 Z" />
<path fill="#f2994a" opacity="1.00" d=" M 216.34 148.35 C 219.56 146.59 222.60 143.94 226.45 143.87 C 226.23 152.60 227.08 161.39 225.96 170.06 C 218.07 166.24 210.27 162.02 203.14 156.91 C 206.84 153.08 211.93 151.18 216.34 148.35 Z" />
<path fill="#f2994a" opacity="1.00" d=" M 108.30 147.28 C 109.97 146.34 111.75 145.60 113.54 144.93 C 114.58 151.24 114.16 157.64 114.22 164.00 C 114.23 185.00 114.20 206.00 114.24 227.01 C 114.22 229.69 113.89 232.36 113.53 235.03 C 108.50 233.36 104.30 230.05 99.73 227.49 C 91.60 222.93 83.47 218.34 75.48 213.54 C 73.07 212.26 73.80 209.25 73.62 207.03 C 73.75 194.66 73.57 182.30 73.69 169.93 C 73.31 166.95 76.46 165.76 78.51 164.45 C 88.57 158.96 98.32 152.92 108.30 147.28 Z" />
<path fill="#f2994a" opacity="1.00" d=" M 136.45 144.93 C 139.42 145.92 142.17 147.45 144.84 149.08 C 165.74 161.24 186.66 173.35 207.67 185.32 C 209.75 186.53 211.90 187.69 213.70 189.30 C 214.24 191.22 211.90 191.81 210.73 192.76 C 199.38 198.95 188.44 205.88 177.08 212.05 C 174.29 213.73 171.65 210.94 169.21 209.85 C 158.40 203.20 147.20 197.24 136.35 190.68 C 135.16 181.17 136.05 171.55 135.78 161.99 C 135.79 156.30 135.51 150.57 136.45 144.93 Z" />
<path fill="#f2994a" opacity="1.00" d=" M 45.57 183.55 C 49.85 181.21 53.82 178.12 58.63 176.92 C 59.59 185.57 59.61 194.40 58.61 203.06 C 53.92 201.72 50.04 198.66 45.80 196.39 C 42.61 194.54 39.14 193.10 36.34 190.67 C 36.32 190.33 36.30 189.64 36.29 189.30 C 39.04 186.88 42.44 185.39 45.57 183.55 Z" />
<path fill="#f2994a" opacity="1.00" d=" M 135.75 215.98 C 135.68 213.38 136.07 210.80 136.79 208.30 C 144.38 211.81 151.28 216.59 158.62 220.57 C 158.64 221.09 158.68 222.14 158.70 222.67 C 154.36 225.40 149.72 227.64 145.38 230.39 C 142.55 232.18 139.63 233.88 136.47 235.03 C 135.42 228.73 135.84 222.34 135.75 215.98 Z" />
</g>
</svg>

<?xml version="1.0" encoding="utf-8"?>
<!-- Generator: Adobe Illustrator 26.0.3, SVG Export Plug-In . SVG Version: 6.00 Build 0)  -->
<svg version="1.1" id="Layer_1" xmlns="http://www.w3.org/2000/svg" xmlns:xlink="http://www.w3.org/1999/xlink" x="0px" y="0px"
	 viewBox="0 0 250 250" style="enable-background:new 0 0 250 250;" xml:space="preserve">
<style type="text/css">
	.st0{fill:#F2994A;}
</style>
<g id="_x23_f2994aff">
	<path class="st0" d="M104.6,19.6c2.8-1.8,5.7-3.5,8.9-4.6c1.1,6.3,0.6,12.7,0.7,19c0.1,2.6-0.3,5.2-1,7.7
		c-7.6-3.5-14.5-8.3-21.8-12.3c0-0.5-0.1-1.6-0.1-2.1C95.7,24.6,100.3,22.4,104.6,19.6z"/>
	<path class="st0" d="M136.5,15c5.2,1.9,9.6,5.3,14.4,7.9c7.1,3.9,14.1,8.1,21.2,12c1.9,1.2,4.6,2.3,4.2,5c0.1,13.4,0.1,26.8,0,40.1
		c0.4,3-2.8,4.2-4.8,5.5c-10,5.5-19.8,11.5-29.8,17.2c-1.7,0.9-3.4,1.7-5.2,2.3c-0.3-2.7-0.7-5.4-0.7-8.1c0-24.7,0-49.4,0-74
		C135.8,20.3,136.1,17.6,136.5,15z"/>
	<path class="st0" d="M69.7,39.7c1.7-0.9,3.4-2,5.3-2.3c4.6,1.7,8.5,4.6,12.8,6.9c8.5,5.3,17.4,9.8,25.9,15.1
		c1.2,8.5,0.3,17.1,0.6,25.7c-0.1,6.7,0.4,13.4-0.7,20.1c-2.3-0.8-4.5-1.8-6.6-3.1C89.6,91.7,72,81.7,54.4,71.6
		c-6-3.7-12.5-6.6-18.1-10.9c0-0.3,0-1,0-1.4c3.2-2.7,7.2-4.3,10.8-6.5C54.6,48.5,62.2,44.1,69.7,39.7z"/>
	<path class="st0" d="M191.4,46.9c4.7,1.4,8.6,4.4,12.8,6.7c3.2,1.8,6.7,3.3,9.5,5.7c0,0.3,0,1,0.1,1.4c-2.7,2.4-6.1,3.9-9.2,5.8
		c-4.3,2.4-8.4,5.4-13.2,6.6C190.4,64.4,190.4,55.6,191.4,46.9z"/>
	<path class="st0" d="M24,79.9c7.9,3.8,15.7,8,22.8,13.1c-3.7,3.8-8.8,5.7-13.2,8.6c-3.2,1.8-6.3,4.4-10.1,4.5
		C23.8,97.4,22.9,88.6,24,79.9z"/>
	<path class="st0" d="M218.1,83.9c2.5-1.5,5.1-2.9,7.9-4c0.5,2.7,0.6,5.3,0.6,8.1c-0.2,12.5,0.1,25-0.1,37.5
		c-11.9,7.5-24.4,14-36.5,21.3c-2.7,2-5.6-0.3-8-1.6c-7.4-4.4-14.7-8.8-22.2-12.9c-4-2.3-8.1-4.3-11.6-7.4c3.8-3.4,8.6-5.4,12.9-8
		C180,105.9,199,94.9,218.1,83.9z"/>
	<path class="st0" d="M60.1,103.2c2.4-1.9,5.2-0.1,7.4,1.2c9.9,6,19.9,11.6,30,17.3c1.6,0.9,3,2.1,4.4,3.3c-3.7,3.5-8.5,5.4-12.8,8
		c-15.2,8.9-30.5,17.5-45.7,26.4c-6.5,3.5-12.6,7.7-19.4,10.6c-0.9-5-0.4-10.1-0.5-15.1c0.1-10.2-0.1-20.3,0.1-30.5
		C35.5,117,48,110.5,60.1,103.2z"/>
	<path class="st0" d="M216.3,148.4c3.2-1.8,6.3-4.4,10.1-4.5c-0.2,8.7,0.6,17.5-0.5,26.2c-7.9-3.8-15.7-8-22.8-13.1
		C206.8,153.1,211.9,151.2,216.3,148.4z"/>
	<path class="st0" d="M108.3,147.3c1.7-0.9,3.4-1.7,5.2-2.4c1,6.3,0.6,12.7,0.7,19.1c0,21,0,42,0,63c0,2.7-0.3,5.4-0.7,8
		c-5-1.7-9.2-5-13.8-7.5c-8.1-4.6-16.3-9.2-24.2-14c-2.4-1.3-1.7-4.3-1.9-6.5c0.1-12.4-0.1-24.7,0.1-37.1c-0.4-3,2.8-4.2,4.8-5.5
		C88.6,159,98.3,152.9,108.3,147.3z"/>
	<path class="st0" d="M136.4,144.9c3,1,5.7,2.5,8.4,4.2c20.9,12.2,41.8,24.3,62.8,36.2c2.1,1.2,4.2,2.4,6,4c0.5,1.9-1.8,2.5-3,3.5
		c-11.3,6.2-22.3,13.1-33.6,19.3c-2.8,1.7-5.4-1.1-7.9-2.2c-10.8-6.7-22-12.6-32.9-19.2c-1.2-9.5-0.3-19.1-0.6-28.7
		C135.8,156.3,135.5,150.6,136.4,144.9z"/>
	<path class="st0" d="M45.6,183.6c4.3-2.3,8.2-5.4,13.1-6.6c1,8.7,1,17.5,0,26.1c-4.7-1.3-8.6-4.4-12.8-6.7
		c-3.2-1.9-6.7-3.3-9.5-5.7c0-0.3,0-1,0-1.4C39,186.9,42.4,185.4,45.6,183.6z"/>
	<path class="st0" d="M135.8,216c-0.1-2.6,0.3-5.2,1-7.7c7.6,3.5,14.5,8.3,21.8,12.3c0,0.5,0.1,1.6,0.1,2.1c-4.3,2.7-9,5-13.3,7.7
		c-2.8,1.8-5.8,3.5-8.9,4.6C135.4,228.7,135.8,222.3,135.8,216z"/>
</g>
</svg>
